static/images/4.svg

<svg width="90" height="91" viewBox="0 0 90 91" fill="none" xmlns="http://www.w3.org/2000/svg">
<circle cx="45.0323" cy="45.6273" r="44.8874" fill="#E94646"/>
<g filter="url(#filter0_d)">
<path d="M55.0367 48.5456C57.7331 48.5456 59.0813 49.6149 59.0813 51.7534C59.0813 53.9539 57.7331 55.0541 55.0367 55.0541H54.0139V56.6348C54.0139 58.0294 53.6265 59.0832 52.8517 59.796C52.0769 60.5089 51.0696 60.8653 49.8299 60.8653C48.5902 60.8653 47.5829 60.5089 46.8081 59.796C46.0643 59.0832 45.6923 58.0294 45.6923 56.6348V55.0541H35.3252C34.2095 55.0541 33.3262 54.7132 32.6753 54.0314C32.0245 53.3495 31.699 52.4972 31.699 51.4744C31.699 50.3897 32.0399 49.3669 32.7218 48.4061L46.0178 29.4385C46.4517 28.8186 46.994 28.3537 47.6449 28.0438C48.3267 27.7029 49.0241 27.5324 49.7369 27.5324C50.9146 27.5324 51.9219 27.9043 52.7587 28.6481C53.5955 29.392 54.0139 30.4302 54.0139 31.7629V48.5456H55.0367ZM40.1136 48.5456H45.6923V40.5029L40.1136 48.5456Z" fill="white"/>
<path d="M54.0139 55.0541V54.0541H53.0139V55.0541H54.0139ZM52.8517 59.796L53.5288 60.532L53.5288 60.532L52.8517 59.796ZM46.8081 59.796L46.1162 60.518L46.1235 60.5251L46.131 60.532L46.8081 59.796ZM45.6923 55.0541H46.6923V54.0541H45.6923V55.0541ZM32.7218 48.4061L33.5373 48.9849L33.5406 48.9801L32.7218 48.4061ZM46.0178 29.4385L46.8366 30.0125L46.837 30.0119L46.0178 29.4385ZM47.6449 28.0438L48.0748 28.9466L48.0835 28.9425L48.0921 28.9382L47.6449 28.0438ZM54.0139 48.5456H53.0139V49.5456H54.0139V48.5456ZM40.1136 48.5456L39.2919 47.9757L38.2029 49.5456H40.1136V48.5456ZM45.6923 48.5456V49.5456H46.6923V48.5456H45.6923ZM45.6923 40.5029H46.6923V37.3067L44.8707 39.933L45.6923 40.5029ZM55.0367 49.5456C56.2796 49.5456 57.027 49.7965 57.4488 50.131C57.8263 50.4305 58.0813 50.9078 58.0813 51.7534H60.0813C60.0813 50.4604 59.6621 49.3338 58.6915 48.5641C57.7651 47.8293 56.4902 47.5456 55.0367 47.5456V49.5456ZM58.0813 51.7534C58.0813 52.6397 57.8197 53.1426 57.4379 53.4542C57.0172 53.7975 56.2745 54.0541 55.0367 54.0541V56.0541C56.4953 56.0541 57.7749 55.7606 58.7024 55.0037C59.6688 54.215 60.0813 53.0675 60.0813 51.7534H58.0813ZM55.0367 54.0541H54.0139V56.0541H55.0367V54.0541ZM53.0139 55.0541V56.6348H55.0139V55.0541H53.0139ZM53.0139 56.6348C53.0139 57.8451 52.6827 58.5927 52.1747 59.0601L53.5288 60.532C54.5704 59.5737 55.0139 58.2138 55.0139 56.6348H53.0139ZM52.1747 59.0601C51.6165 59.5736 50.8661 59.8653 49.8299 59.8653V61.8653C51.2731 61.8653 52.5373 61.4442 53.5288 60.532L52.1747 59.0601ZM49.8299 59.8653C48.7937 59.8653 48.0433 59.5736 47.4851 59.0601L46.131 60.532C47.1225 61.4442 48.3867 61.8653 49.8299 61.8653V59.8653ZM47.5 59.0741C47.0149 58.6092 46.6923 57.8566 46.6923 56.6348H44.6923C44.6923 58.2023 45.1136 59.5572 46.1162 60.518L47.5 59.0741ZM46.6923 56.6348V55.0541H44.6923V56.6348H46.6923ZM45.6923 54.0541H35.3252V56.0541H45.6923V54.0541ZM35.3252 54.0541C34.4284 54.0541 33.8263 53.7889 33.3987 53.3409L31.9519 54.7218C32.826 55.6375 33.9905 56.0541 35.3252 56.0541V54.0541ZM33.3987 53.3409C32.9412 52.8617 32.699 52.264 32.699 51.4744H30.699C30.699 52.7304 31.1077 53.8373 31.9519 54.7218L33.3987 53.3409ZM32.699 51.4744C32.699 50.6151 32.9646 49.7919 33.5373 48.9849L31.9063 47.8274C31.1153 48.942 30.699 50.1643 30.699 51.4744H32.699ZM33.5406 48.9801L46.8366 30.0125L45.1989 28.8645L31.9029 47.8321L33.5406 48.9801ZM46.837 30.0119C47.1769 29.5264 47.5879 29.1785 48.0748 28.9466L47.215 27.1409C46.4002 27.5289 45.7264 28.1108 45.1985 28.865L46.837 30.0119ZM48.0921 28.9382C48.645 28.6618 49.19 28.5324 49.7369 28.5324V26.5324C48.8582 26.5324 48.0085 26.7439 47.1977 27.1493L48.0921 28.9382ZM49.7369 28.5324C50.6836 28.5324 51.4507 28.8234 52.0944 29.3955L53.4231 27.9007C52.3931 26.9852 51.1457 26.5324 49.7369 26.5324V28.5324ZM52.0944 29.3955C52.6769 29.9134 53.0139 30.6564 53.0139 31.7629H55.0139C55.0139 30.2041 54.5141 28.8705 53.4231 27.9007L52.0944 29.3955ZM53.0139 31.7629V48.5456H55.0139V31.7629H53.0139ZM54.0139 49.5456H55.0367V47.5456H54.0139V49.5456ZM40.1136 49.5456H45.6923V47.5456H40.1136V49.5456ZM46.6923 48.5456V40.5029H44.6923V48.5456H46.6923ZM44.8707 39.933L39.2919 47.9757L40.9353 49.1156L46.514 41.0729L44.8707 39.933Z" fill="black" fill-opacity="0.14"/>
</g>
<defs>
<filter id="filter0_d" x="20.699" y="21.5324" width="49.3823" height="55.3329" filterUnits="userSpaceOnUse" color-interpolation-filters="sRGB">
<feFlood flood-opacity="0" result="BackgroundImageFix"/>
<feColorMatrix in="SourceAlpha" type="matrix" values="0 0 0 0 0 0 0 0 0 0 0 0 0 0 0 0 0 0 127 0"/>
<feOffset dy="5"/>
<feGaussianBlur stdDeviation="5"/>
<feColorMatrix type="matrix" values="0 0 0 0 0 0 0 0 0 0 0 0 0 0 0 0 0 0 0.39 0"/>
<feBlend mode="normal" in2="BackgroundImageFix" result="effect1_dropShadow"/>
<feBlend mode="normal" in="SourceGraphic" in2="effect1_dropShadow" result="shape"/>
</filter>
</defs>
</svg>

<svg width="90" height="91" fill="none" xmlns="http://www.w3.org/2000/svg"><circle cx="45.032" cy="45.627" r="44.887" fill="#E94646"/><g filter="url(#filter0_d)"><path d="M55.037 48.546c2.696 0 4.044 1.069 4.044 3.207 0 2.2-1.348 3.301-4.044 3.301h-1.023v1.58c0 1.395-.388 2.45-1.162 3.162-.775.713-1.782 1.07-3.022 1.07-1.24 0-2.247-.357-3.022-1.07-.744-.713-1.116-1.767-1.116-3.161v-1.58H35.325c-1.116 0-1.999-.342-2.65-1.024-.65-.681-.976-1.534-.976-2.557 0-1.084.34-2.107 1.023-3.068L46.018 29.44a4.135 4.135 0 0 1 1.627-1.395 4.63 4.63 0 0 1 2.092-.512c1.178 0 2.185.372 3.022 1.116.837.744 1.255 1.782 1.255 3.115v16.783h1.023zm-14.923 0h5.578v-8.043l-5.578 8.043z" fill="#fff"/><path d="M54.014 55.054v-1h-1v1h1zm-1.162 4.742l.677.736-.677-.736zm-6.044 0l-.692.722.008.007.007.007.677-.736zm-1.116-4.742h1v-1h-1v1zm-12.97-6.648l.815.579.004-.005-.82-.574zM46.018 29.44l.819.573-.82-.573zm1.627-1.395l.43.903.008-.005.01-.004-.448-.894zm6.369 20.502h-1v1h1v-1zm-13.9 0l-.822-.57-1.09 1.57h1.912v-1zm5.578 0v1h1v-1h-1zm0-8.043h1v-3.196l-1.821 2.626.821.57zm9.345 9.043c1.243 0 1.99.25 2.412.585.377.3.632.777.632 1.622h2c0-1.293-.419-2.42-1.39-3.189-.926-.735-2.2-1.018-3.654-1.018v2zm3.044 2.207c0 .887-.261 1.39-.643 1.701-.42.343-1.163.6-2.401.6v2c1.458 0 2.738-.293 3.665-1.05.967-.789 1.38-1.936 1.38-3.25h-2zm-3.044 2.301h-1.023v2h1.023v-2zm-2.023 1v1.58h2v-1.58h-2zm0 1.58c0 1.211-.331 1.959-.84 2.426l1.355 1.472c1.041-.958 1.485-2.318 1.485-3.897h-2zm-.84 2.426c-.557.514-1.308.805-2.344.805v2c1.443 0 2.707-.42 3.699-1.333l-1.354-1.472zm-2.344.805c-1.036 0-1.787-.291-2.345-.805l-1.354 1.472c.992.912 2.256 1.333 3.699 1.333v-2zm-2.33-.79c-.485-.466-.808-1.218-.808-2.44h-2c0 1.567.422 2.922 1.424 3.883l1.384-1.444zm-.808-2.44v-1.58h-2v1.58h2zm-1-2.58H35.325v2h10.367v-2zm-10.367 0c-.897 0-1.499-.266-1.926-.714l-1.447 1.38c.874.917 2.038 1.333 3.373 1.333v-2zM33.4 53.34c-.458-.48-.7-1.077-.7-1.867h-2c0 1.256.409 2.363 1.253 3.248L33.4 53.34zm-.7-1.867c0-.859.266-1.682.838-2.49l-1.63-1.157c-.792 1.115-1.208 2.337-1.208 3.647h2zm.842-2.494l13.296-18.967-1.638-1.149-13.296 18.968 1.638 1.148zm13.296-18.968a3.12 3.12 0 0 1 1.238-1.065l-.86-1.806a5.135 5.135 0 0 0-2.017 1.724l1.639 1.147zm1.255-1.074a3.63 3.63 0 0 1 1.645-.406v-2c-.879 0-1.729.212-2.54.617l.895 1.79zm1.645-.406c.947 0 1.714.291 2.357.863l1.33-1.494c-1.03-.916-2.278-1.369-3.687-1.369v2zm2.357.863c.583.518.92 1.261.92 2.368h2c0-1.559-.5-2.893-1.59-3.862l-1.33 1.494zm.92 2.368v16.783h2V31.763h-2zm1 17.783h1.023v-2h-1.023v2zm-13.9 0h5.578v-2h-5.578v2zm6.578-1v-8.043h-2v8.043h2zm-1.821-8.613l-5.58 8.043 1.644 1.14 5.579-8.043-1.643-1.14z" fill="#000" fill-opacity=".14"/></g><defs><filter id="filter0_d" x="20.699" y="21.532" width="49.382" height="55.333" filterUnits="userSpaceOnUse" color-interpolation-filters="sRGB"><feFlood flood-opacity="0" result="BackgroundImageFix"/><feColorMatrix in="SourceAlpha" values="0 0 0 0 0 0 0 0 0 0 0 0 0 0 0 0 0 0 127 0"/><feOffset dy="5"/><feGaussianBlur stdDeviation="5"/><feColorMatrix values="0 0 0 0 0 0 0 0 0 0 0 0 0 0 0 0 0 0 0.39 0"/><feBlend in2="BackgroundImageFix" result="effect1_dropShadow"/><feBlend in="SourceGraphic" in2="effect1_dropShadow" result="shape"/></filter></defs></svg>
